X: 25
T: Sergt. Early's jig
C: anon.
O: Ireland
B: Francis O'Neill: "The Dance Music of Ireland" (1907) no. 25
R: Double jig
Z: Transcribed by Frank Nordberg - http://www.musicaviva.com
F: http://www.musicaviva.com/abc/tunes/ireland/oneill-1001/oneill-1001-002
5.abc
M: 6/8
L: 1/8
Q: 3/8=128
K: D
A|FED DED|GEG _c2e|dcA (e<f)d|ecA A2G|FED EFG|AEG _c2e|dcA GEA|DEDD2:|
d|cBA Bcd|efe e2d|dcd (e<f)d|ecA A2d|cBA Bcd|eag e2d|dcA GEA|DEDD2:|
W:
W:
W: From Musica Viva - http://www.musicaviva.com
W: the Internet center for free sheet music downloads.


